X: 3
T: The Cowboy
R: jig
M: 6/8
L: 1/8
K: Amaj
B |AFE A2 B | cff ecB | AFE ABc | dcB AFE |AFE A2 B | cff ecB | AFE A2 B | 1cAA A2 :| 2cAA Ace ||f2 e f2 e | faf fec | e2 c e2 c | eaf ece |f2 e f2 g | agf ecB |AFE A2 B | 1cAA Ace :| 2cAA A2 |]


Tune 794	Setting 24723

